dist/imgs/bell-icon.svg

<svg width="13" height="13" viewBox="0 0 13 13" fill="none" xmlns="http://www.w3.org/2000/svg">
<path d="M10.8142 8.4992C10.7753 8.45233 10.7371 8.40545 10.6996 8.36022C10.184 7.73655 9.87201 7.36014 9.87201 5.5946C9.87201 4.68054 9.65334 3.93054 9.22232 3.36804C8.90451 2.95249 8.4749 2.63726 7.90865 2.40429C7.90136 2.40023 7.89486 2.39492 7.88943 2.38858C7.68576 1.70655 7.12842 1.24976 6.49982 1.24976C5.87123 1.24976 5.31412 1.70655 5.11045 2.38788C5.10501 2.39398 5.0986 2.39913 5.09146 2.40311C3.77006 2.9471 3.12787 3.99077 3.12787 5.59389C3.12787 7.36014 2.81639 7.73655 2.30029 8.35952C2.26279 8.40475 2.22459 8.45069 2.18568 8.4985C2.08519 8.6197 2.02151 8.76716 2.0022 8.92342C1.98288 9.07967 2.00874 9.2382 2.0767 9.38022C2.22131 9.68491 2.52951 9.87405 2.88131 9.87405H10.1209C10.4711 9.87405 10.7772 9.68514 10.9222 9.38186C10.9905 9.2398 11.0166 9.08115 10.9974 8.92471C10.9783 8.76827 10.9147 8.6206 10.8142 8.4992Z" fill="#718096"/>
<path d="M6.49974 11.75C6.83842 11.7497 7.17072 11.6578 7.46137 11.4839C7.75203 11.3101 7.99022 11.0608 8.15068 10.7626C8.15824 10.7483 8.16197 10.7323 8.16152 10.7161C8.16106 10.7 8.15644 10.6842 8.14809 10.6703C8.13974 10.6565 8.12795 10.645 8.11386 10.6371C8.09978 10.6292 8.08388 10.625 8.06771 10.625H4.93224C4.91605 10.6249 4.90013 10.6291 4.88601 10.637C4.8719 10.6449 4.86007 10.6564 4.85169 10.6702C4.84332 10.6841 4.83867 10.6999 4.8382 10.7161C4.83774 10.7322 4.84147 10.7483 4.84904 10.7626C5.00948 11.0608 5.24763 11.31 5.53825 11.4839C5.82886 11.6577 6.1611 11.7497 6.49974 11.75Z" fill="#718096"/>
</svg>

<svg width="13" height="13" fill="none" xmlns="http://www.w3.org/2000/svg"><path d="M10.814 8.5l-.114-.14c-.516-.623-.828-1-.828-2.765 0-.914-.219-1.664-.65-2.227-.317-.416-.747-.73-1.313-.964a.07.07 0 01-.02-.015c-.203-.682-.76-1.14-1.39-1.14-.628 0-1.185.458-1.389 1.139a.073.073 0 01-.019.015c-1.32.544-1.963 1.588-1.963 3.19 0 1.767-.312 2.144-.828 2.767l-.114.139a.824.824 0 00-.11.881.876.876 0 00.805.494h7.24c.35 0 .656-.189.801-.492a.823.823 0 00-.108-.883zM6.5 11.75a1.876 1.876 0 001.65-.987.094.094 0 00-.082-.138H4.932a.094.094 0 00-.083.138 1.877 1.877 0 001.65.987z" fill="#718096"/></svg>
